icon/fa/group-arrows-rotate.svg

<svg xmlns="http://www.w3.org/2000/svg" viewBox="0 0 512 512"><!--! Font Awesome Free 6.1.2 by @fontawesome - https://fontawesome.com License - https://fontawesome.com/license/free (Icons: CC BY 4.0, Fonts: SIL OFL 1.1, Code: MIT License) Copyright 2022 Fonticons, Inc.--><path d="M159.7 89.85c.2 2.02-.6 4.08-.6 6.15 0 35.3-27.8 64-64 64-1.18 0-3.23-.1-5.25-.3-7.51 12.9-13.56 26.8-17.91 41.4-5.04 17-22.86 26.6-39.79 21.6-16.94-5.1-26.588-22.9-21.55-39.8 6.41-21.5 15.55-41.9 27.04-60.6-3.62-8-6.54-16.9-6.54-26.3 0-35.35 29.55-64 64-64 10.3 0 19.2 2.02 27.2 5.64 18.7-11.48 39.1-20.63 60.6-27.03 16.9-5.044 34.7 4.6 39.8 21.54 5 16.94-4.6 34.76-21.6 39.8-14.6 4.35-28.5 10.39-41.4 17.9zm230-52.21c8-3.62 16.9-5.64 25.4-5.64 36.2 0 64 28.65 64 64 0 9.4-2 18.3-4.7 26.3 11.4 18.7 19.7 39.1 27 60.6 5 16.9-4.6 34.7-21.6 39.8-16.9 5-34.7-4.6-39.7-21.6-4.4-14.6-10.4-28.5-18-41.4-2 .2-4 .3-6.1.3-35.3 0-64-28.7-64-64 0-2.07.1-4.13.3-6.15-12.9-7.51-26.8-13.55-41.4-17.9-17-5.04-26.6-22.86-21.6-39.8 5.1-16.94 22.9-26.584 39.8-21.54 21.5 6.4 41 15.55 60.6 27.03zM89.85 352.3c2.02-.2 4.07-.3 5.25-.3 36.2 0 64 28.7 64 64 0 2.1.8 4.1.6 6.2 12.9 7.5 26.8 13.5 41.4 17.9 17 5 26.6 22.8 21.6 39.8-5.1 16.9-22.9 26.5-39.8 21.5-21.5-7.3-41.9-15.6-60.6-27-8 2.7-16.9 5.6-27.2 5.6-34.45 0-64-28.7-64-64 0-9.4 2.92-18.3 6.54-26.3-11.49-19.6-20.63-39.1-27.04-60.6-5.038-16.9 4.61-34.7 21.55-39.8 16.93-5 34.75 4.6 39.79 21.6 4.35 14.6 10.4 28.5 17.91 41.4zm384.55 37.4c2.7 8 4.7 16.9 4.7 26.3 0 35.3-27.8 64-64 64-8.5 0-17.4-2.9-25.4-5.6-19.6 11.4-39.1 19.7-60.6 27-16.9 5-34.7-4.6-39.8-21.5-5-17 4.6-34.8 21.6-39.8 14.6-4.4 28.5-10.4 41.4-17.9-.2-2.1-1.2-4.1-1.2-6.2 0-35.3 29.6-64 64-64 3 0 5 .1 7.1.3 7.5-12.9 13.5-26.8 17.9-41.4 5-17 22.8-26.6 39.7-21.6 17 5.1 26.6 22.9 21.6 39.8-7.3 21.5-15.6 41-27 60.6zM192.8 256.8c0 24.8 14.1 46.4 34.9 57 11.8 6.1 16.5 20.5 10.5 32.3-6.1 11.8-20.5 16.5-32.3 10.5-36.2-18.5-61.1-56.2-61.1-99.8 0-28.9 10.9-55.2 28.9-75.1l-11.2-11.1c-7.4-7.5-1.9-17.8 7.4-17.8h60.5c5.7 0 10.4 4.7 10.4 10.4v60.5c0 8.4-11.2 13.9-17.8 7.3l-15.3-15.3c-9.3 11.1-14.9 25.4-14.9 41.1zm82.6-90.9c6.1-11.8 20.5-16.5 32.3-10.5 36.2 18.5 61.1 56.2 61.1 99.8 0 28.9-11 55.3-28.9 75.1l11.1 11.2c6.6 6.5 1.1 17.7-7.3 17.7h-60.5c-5.7 0-10.4-4.6-10.4-10.4v-60.5c0-9.3 11.2-13.9 17.8-8.2l15.3 16.2c9.3-11.1 14.9-25.4 14.9-41.1 0-24.8-14.2-46.4-34.9-57-11.8-6.1-16.5-20.5-10.5-32.3z"/></svg>

<svg xmlns="http://www.w3.org/2000/svg" viewBox="0 0 512 512" height="1em" width="1em">
<!--! Font Awesome Free 6.1.2 by @fontawesome - https://fontawesome.com License - https://fontawesome.com/license/free (Icons: CC BY 4.0, Fonts: SIL OFL 1.1, Code: MIT License) Copyright 2022 Fonticons, Inc.-->
  <path d="M159.7 89.85C159.9 91.87 159.1 93.93 159.1 96C159.1 131.3 131.3 160 95.1 160C93.92 160 91.87 159.9 89.85 159.7C82.34 172.6 76.29 186.5 71.94 201.1C66.9 218.1 49.08 227.7 32.15 222.7C15.21 217.6 5.562 199.8 10.6 182.9C17.01 161.4 26.15 141 37.64 122.3C34.02 114.3 31.1 105.4 31.1 96C31.1 60.65 60.65 32 95.1 32C105.4 32 114.3 34.02 122.3 37.64C141 26.16 161.4 17.01 182.9 10.61C199.8 5.566 217.6 15.21 222.7 32.15C227.7 49.09 218.1 66.91 201.1 71.95C186.5 76.3 172.6 82.34 159.7 89.85V89.85zM389.7 37.64C397.7 34.02 406.6 32 415.1 32C451.3 32 479.1 60.65 479.1 96C479.1 105.4 477.1 114.3 474.4 122.3C485.8 141 494.1 161.4 501.4 182.9C506.4 199.8 496.8 217.6 479.8 222.7C462.9 227.7 445.1 218.1 440.1 201.1C435.7 186.5 429.7 172.6 422.1 159.7C420.1 159.9 418.1 160 416 160C380.7 160 352 131.3 352 96C352 93.93 352.1 91.87 352.3 89.85C339.4 82.34 325.5 76.3 310.9 71.95C293.9 66.91 284.3 49.09 289.3 32.15C294.4 15.21 312.2 5.566 329.1 10.61C350.6 17.01 370.1 26.16 389.7 37.64L389.7 37.64zM89.85 352.3C91.87 352.1 93.92 352 95.1 352C131.3 352 159.1 380.7 159.1 416C159.1 418.1 159.9 420.1 159.7 422.2C172.6 429.7 186.5 435.7 201.1 440.1C218.1 445.1 227.7 462.9 222.7 479.9C217.6 496.8 199.8 506.4 182.9 501.4C161.4 494.1 141 485.8 122.3 474.4C114.3 477.1 105.4 480 95.1 480C60.65 480 31.1 451.3 31.1 416C31.1 406.6 34.02 397.7 37.64 389.7C26.15 370.1 17.01 350.6 10.6 329.1C5.562 312.2 15.21 294.4 32.15 289.3C49.08 284.3 66.9 293.9 71.94 310.9C76.29 325.5 82.34 339.4 89.85 352.3L89.85 352.3zM474.4 389.7C477.1 397.7 479.1 406.6 479.1 416C479.1 451.3 451.3 480 415.1 480C406.6 480 397.7 477.1 389.7 474.4C370.1 485.8 350.6 494.1 329.1 501.4C312.2 506.4 294.4 496.8 289.3 479.9C284.3 462.9 293.9 445.1 310.9 440.1C325.5 435.7 339.4 429.7 352.3 422.2C352.1 420.1 351.1 418.1 351.1 416C351.1 380.7 380.7 352 415.1 352C418.1 352 420.1 352.1 422.2 352.3C429.7 339.4 435.7 325.5 440.1 310.9C445.1 293.9 462.9 284.3 479.8 289.3C496.8 294.4 506.4 312.2 501.4 329.1C494.1 350.6 485.8 370.1 474.4 389.7H474.4zM192.8 256.8C192.8 281.6 206.9 303.2 227.7 313.8C239.5 319.9 244.2 334.3 238.2 346.1C232.1 357.9 217.7 362.6 205.9 356.6C169.7 338.1 144.8 300.4 144.8 256.8C144.8 227.9 155.7 201.6 173.7 181.7L162.5 170.6C155.1 163.1 160.6 152.8 169.9 152.8H230.4C236.1 152.8 240.8 157.5 240.8 163.2V223.7C240.8 232.1 229.6 237.6 223 231L207.7 215.7C198.4 226.8 192.8 241.1 192.8 256.8V256.8zM275.4 165.9C281.5 154.1 295.9 149.4 307.7 155.4C343.9 173.9 368.8 211.6 368.8 255.2C368.8 284.1 357.8 310.5 339.9 330.3L351 341.5C357.6 348 352.1 359.2 343.7 359.2H283.2C277.5 359.2 272.8 354.6 272.8 348.8V288.3C272.8 279 284 274.4 290.6 280.1L305.9 296.3C315.2 285.2 320.8 270.9 320.8 255.2C320.8 230.4 306.6 208.8 285.9 198.2C274.1 192.1 269.4 177.7 275.4 165.9V165.9z"/>
</svg>
